resources/svg/telegram.svg

<svg xmlns="http://www.w3.org/2000/svg" viewBox="0 0 20 20" fill="currentColor"><path d="M10,0 C15.5228475,0 20,4.4771525 20,10 C20,15.5228475 15.5228475,20 10,20 C4.4771525,20 0,15.5228475 0,10 C0,4.4771525 4.4771525,0 10,0 Z M14.4415206,6 C14.060553,6.00676048 13.476055,6.20741135 10.663148,7.36249773 C9.67796175,7.7670526 7.70897661,8.60437935 4.75619264,9.87447795 C4.27670659,10.0627254 4.02553067,10.2468857 4.00266485,10.4269588 C3.95876487,10.7726802 4.46291296,10.8803081 5.09723696,11.0838761 C5.61440201,11.2498453 6.31007997,11.4440124 6.67173438,11.4517262 C6.99978943,11.4587234 7.36593635,11.3251987 7.77017511,11.051152 C10.5290529,9.21254679 11.9531977,8.28322679 12.0426094,8.26319203 C12.1056879,8.24905787 12.1930992,8.23128593 12.2523244,8.28325656 C12.3115496,8.33522719 12.3057275,8.43364956 12.299454,8.46005377 C12.2492926,8.67117474 9.65764825,10.998457 9.50849738,11.1513987 L9.43697409,11.2233057 C8.88741493,11.7661123 8.33196049,12.1205055 9.290333,12.7440164 C10.155665,13.3069957 10.6592923,13.6661378 11.5507686,14.2430701 C12.1204738,14.6117635 12.5671299,15.0489784 13.1553348,14.9955401 C13.4259939,14.9709508 13.705567,14.7196888 13.8475521,13.9703127 C14.1831052,12.1993135 14.8426779,8.36209709 14.9951103,6.78087197 C15.0084653,6.64233621 14.9916649,6.46503787 14.9781732,6.38720805 C14.9646815,6.30937823 14.9364876,6.19848702 14.8340164,6.11639754 C14.7126597,6.01917896 14.5253109,5.99867765 14.4415206,6 Z"/></svg>

<svg xmlns="http://www.w3.org/2000/svg" fill="currentColor" viewBox="0 0 20 20"><path d="M10 0c5.523 0 10 4.477 10 10s-4.477 10-10 10S0 15.523 0 10 4.477 0 10 0Zm4.442 6c-.381.007-.966.207-3.779 1.362a485.41 485.41 0 0 0-5.907 2.512c-.48.189-.73.373-.753.553-.044.346.46.453 1.094.657.517.166 1.213.36 1.575.368.328.007.694-.127 1.098-.4 2.76-1.84 4.183-2.769 4.273-2.789.063-.014.15-.032.21.02.059.052.053.15.046.177-.05.211-2.641 2.538-2.79 2.691l-.072.072c-.55.543-1.105.898-.147 1.521.866.563 1.37.922 2.26 1.5.57.368 1.017.805 1.605.752.271-.025.55-.276.693-1.026.335-1.77.995-5.608 1.147-7.19a1.742 1.742 0 0 0-.017-.393.42.42 0 0 0-.144-.27c-.121-.098-.309-.118-.392-.117Z"/></svg>
